X: 3263
M: 6/8
L: 1/8
K: G
|:\
|:\
d2g d2B | c2e c2A | B2d B2G | AFD D3 |\
d2g d2B | c2e c2B | AcB cAF | G3  G3 :|


